X:64
T:The Countess of Sutherland's Reel
C:Daniel Dow
S:Petrie's Third Collection of Strathspey Reels and Country Dances &c.
Z:Steve Wyrick , 7/31/05
N:Petrie's Third Collection, page 24
L:1/8
M:C
R:Reel
K:Bb
d|B2 FB GBFB|EBDB Cc-cd|B2 FB GBFB|G(gfe) dBB:|(f/g//a//)|bfdf egce|dfBd cF-Fa|
bfdf egce|dfec dB-Ba|bfdf egce|dfBd cF-Ff|(gfga) bgfe|dfce dBB|]
